X: 40842
T: Tram, The
R: jig
M: 6/8
K: Edorian
|:~E3 FED|EDE B,2C|D2D F/G/AF|DB,A, A,B,D|
~E3 FGA|Be^d efe|dcB cAF|1 E2E B,CD:|2 EGF E^GB||
|:egf ece|dcB AGF|EDE FGA|BEF EDB,|
D2D EFG|FAc fge|fdB cAF|1 EF^G ABd:|2 EFG B,CD||

